X: 1
T:Richard's Gone Bananas  "	"
M:6/8
L:1/8
Q:80
C:Terry Tully
S:Waltz
K:HP
[| {g}e/2d/2|
B/2c/2{e}c/2{G}c/2{g}e/2c/2A/2B/2{e}B/2{G}B/2{g}e/2c/2|
G/2A/2{g}A/2B/2c/2d/2{gef}e2{g}f/2e/2|  !
A/2d/2{e}d/2{G}d/2{g}e/2d/2B/2c/2{e}c/2{G}c/2{g}e/2c/2|
A/2{d}B/2{G}B/2A/2{g}B/2c/2{gBd}B2{g}e/2d/2|
B/2c/2{e}c/2{G}c/2{g}e/2c/2A/2B/2{e}B/2{G}B/2{g}e/2c/2|  !
G/2A/2{g}A/2B/2c/2d/2{gef}e2{g}f/2e/2|
A/2d/2{e}d/2{G}d/2{g}e/2d/2B/2c/2{e}c/2{G}c/2{g}e/2c/2|
A/2{d}B/2{G}B/2A/2{g}B/2{d}c/2{G}A2|] [|  !
{g}f/2e/2|
B/2c/2{e}c/2{G}c/2a/2c/2B/2c/2{e}c/2{G}c/2{g}f/2e/2|
{gAGAG}A{d}A/2a/2B/2a/2{cd}c3/2e/2{g}f/2e/2|  !
A/2d/2{e}d/2{G}d/2{g}e/2d/2B/2c/2{e}c/2{G}c/2{g}e/2c/2|
A/2{d}B/2{G}B/2A/2{g}B/2c/2{gBd}B2{g}f/2e/2|
B/2c/2{e}c/2{G}c/2{g}a/2c/2B/2c/2{e}c/2{G}c/2{g}f/2e/2|  !
{gAGAG}A{d}A/2a/2B/2a/2{cd}c3/2e/2{g}f/2e/2|
A/2d/2{e}d/2{G}d/2{g}e/2d/2B/2c/2{e}c/2{G}c/2{g}e/2c/2|
A/2{d}B/2{G}B/2A/2{g}B/2{d}c/2{G}A2|] [|  !
{g}f/2e/2|
B/2c/2{e}c/2{G}c/2{e}c/2{G}c/2B/2c/2{e}c/2{G}c/2{e}c/2{G}c/2|
B/2A/2{g}A/2a/2{Bd}B/2a/2{cd}c3/2e/2{g}f/2e/2|  !
f/2d/2{e}d/2{G}d/2{g}e/2d/2e/2c/2{e}c/2{G}c/2{g}f/2e/2|
{gcd}c/2e/2a/2e/2{gcd}c/2A/2{gBd}B3/2e/2{g}f/2e/2|
B/2c/2{e}c/2{G}c/2{e}B/2d/2{g}c/2e/2{g}d/2f/2{g}e/2g/2|  !
{a}f/2a/2A/2a/2{Bd}B/2a/2{cd}c3/2e/2{g}f/2e/2|
A/2d/2{e}d/2{G}d/2{g}e/2d/2B/2c/2{e}c/2{G}c/2{g}e/2c/2|
A/2{d}B/2{G}B/2A/2{g}B/2{d}c/2{G}A2|]  !
